; generated by PrusaSlicer 2.0.0+win64 on 2019-10-26 at 14:12:12

; 

; external perimeters extrusion width = 0.45mm
; perimeters extrusion width = 0.45mm
; infill extrusion width = 0.45mm
; solid infill extrusion width = 0.45mm
; top infill extrusion width = 0.40mm
; first layer extrusion width = 0.42mm

M73 P0 R111
M73 Q0 S111
M201 X1000 Y1000 Z1000 E5000 ; sets maximum accelerations, mm/sec^2
M203 X200 Y200 Z12 E120 ; sets maximum feedrates, mm/sec
M204 P1250 R1250 T1250 ; sets acceleration (P, T) and retract acceleration (R), mm/sec^2
M205 X8.00 Y8.00 Z0.40 E1.50 ; sets the jerk limits, mm/sec
M205 S0 T0 ; sets the minimum extruding and travel feed rate, mm/sec
M107
M115 U3.8.0 ; tell printer latest fw version
G90 ; use absolute coordinates
M83 ; extruder relative mode
M104 S215 ; set extruder temp
M140 S60 ; set bed temp
M190 S60 ; wait for bed temp
M109 S215 ; wait for extruder temp
G28 W ; home all without mesh bed level
G80 ; mesh bed leveling
G1 Y-3.0 F1000.0 ; go outside print area
G92 E0.0
G1 X60.0 E9.0 F1000.0 ; intro line
M73 Q0 S111
M73 P0 R111
G1 X100.0 E12.5 F1000.0 ; intro line
G92 E0.0
M221 S95
M900 K30 ; Filament gcode
G21 ; set units to millimeters
G90 ; use absolute coordinates
M83 ; use relative distances for extrusion
;BEFORE_LAYER_CHANGE
G92 E0.0
;0.2


G1 E-0.80000 F2100.00000
G1 Z0.600 F10800.000
;AFTER_LAYER_CHANGE
;0.2
G1 X98.810 Y103.097
G1 Z0.200
G1 E0.80000 F2100.00000
M204 S1000
G1 F1200
G1 X99.520 Y102.059 E0.03942
G1 X113.478 Y86.910 E0.64589
G1 X114.531 Y86.090 E0.04182
G1 X115.724 Y85.487 E0.04192
G1 X116.917 Y85.140 E0.03896
G1 X118.249 Y85.011 E0.04196
G1 X119.116 Y85.066 E0.02725
G1 X135.294 Y87.282 E0.51197
G1 X135.819 Y87.422 E0.01703
G1 X136.248 Y87.655 E0.01532
G1 X149.720 Y97.131 E0.51642
G1 X150.314 Y97.634 E0.02443
G1 X150.820 Y98.231 E0.02453
G1 X151.423 Y99.394 E0.04106
G1 X151.684 Y100.734 E0.04280
G1 X151.689 Y116.061 E0.48059
G1 X151.614 Y116.884 E0.02591
G1 X151.306 Y117.905 E0.03343
G1 X150.774 Y118.833 E0.03353
G1 X147.053 Y123.359 E0.18372
G1 X146.216 Y124.122 E0.03552
G1 X145.614 Y124.485 E0.02202
G1 X144.975 Y124.751 E0.02169
G1 X144.306 Y124.919 E0.02163
G1 X143.609 Y124.987 E0.02197
G1 X102.895 Y124.987 E1.27657
G1 X101.841 Y124.843 E0.03335
G1 X100.804 Y124.443 E0.03484
G1 X99.925 Y123.839 E0.03344
G1 X99.181 Y123.020 E0.03470
G1 X98.815 Y122.415 E0.02216
G1 X98.551 Y121.779 E0.02158
G1 X98.382 Y121.108 E0.02172
G1 X98.313 Y120.402 E0.02223
G1 X98.313 Y105.075 E0.48055
G1 X98.451 Y104.067 E0.03192
G1 X98.789 Y103.153 E0.03056
G1 F8640
G1 X99.520 Y102.059 E-0.30375
G1 X100.859 Y100.606 E-0.45625
G1 E-0.04000 F2100.00000
G1 Z0.800 F10800.000
G1 X129.584 Y91.863
G1 Z0.200
G1 E0.80000 F2100.00000
G1 F1200
G1 X129.584 Y90.037 E0.05725
G1 X134.410 Y90.037 E0.15131
G1 X134.410 Y91.863 E0.05725
G1 X129.644 Y91.863 E0.14943
G1 X129.207 Y92.240 F10800.000
G1 F1200
G1 X129.207 Y89.660 E0.08089
G1 X134.787 Y89.660 E0.17496
G1 X134.787 Y92.240 E0.08089
G1 X129.267 Y92.240 E0.17308
G1 X129.355 Y91.869 F10800.000
G1 F8640
G1 X129.207 Y89.660 E-0.59589
G1 X129.917 Y89.660 E-0.16411
G1 E-0.04000 F2100.00000
G1 Z0.800 F10800.000
G1 X129.697 Y90.932
G1 Z0.200
G1 E0.80000 F2100.00000
G1 F1200
G1 X130.345 Y91.580 E0.03074
G1 X130.915 Y91.580 E0.01913
G1 X129.867 Y90.531 E0.04975
G1 X129.867 Y90.320 E0.00709
G1 X130.226 Y90.320 E0.01204
G1 X131.486 Y91.580 E0.05978
G1 X132.056 Y91.580 E0.01913
G1 X130.796 Y90.320 E0.05978
G1 X131.367 Y90.320 E0.01913
G1 X132.627 Y91.580 E0.05978
G1 X133.197 Y91.580 E0.01913
G1 X131.937 Y90.320 E0.05978
G1 X132.507 Y90.320 E0.01913
G1 X133.768 Y91.580 E0.05978
G1 X134.127 Y91.580 E0.01205
G1 X134.127 Y91.369 E0.00708
G1 X133.078 Y90.320 E0.04976
G1 X133.648 Y90.320 E0.01913
G1 X134.297 Y90.968 E0.03075
G1 F8640
G1 X133.648 Y90.320 E-0.21171
G1 X133.078 Y90.320 E-0.13171
G1 X134.127 Y91.369 E-0.34257
G1 X134.127 Y91.580 E-0.04877
G1 X134.017 Y91.580 E-0.02525
G1 E-0.04000 F2100.00000
G1 Z0.800 F10800.000
G1 X143.587 Y118.046
G1 Z0.200
G1 E0.80000 F2100.00000
G1 F1200
G1 X143.587 Y121.887 E0.12044
G1 X133.913 Y121.887 E0.30333
G1 X133.913 Y118.052 E0.12026
G1 X134.413 Y117.971 E0.01588
G1 X134.417 Y117.418 E0.01735
G1 X134.474 Y117.179 E0.00770
G1 X134.592 Y116.944 E0.00826
G1 X134.767 Y116.741 E0.00838
G1 X134.985 Y116.588 E0.00838
G1 X135.235 Y116.491 E0.00838
G1 X135.464 Y116.463 E0.00724
G1 X142.036 Y116.463 E0.20606
G1 X142.269 Y116.492 E0.00735
G1 X142.556 Y116.607 E0.00968
G1 X142.866 Y116.874 E0.01286
G1 X143.049 Y117.237 E0.01274
G1 X143.087 Y117.493 E0.00812
G1 X143.089 Y117.972 E0.01500
G1 X143.528 Y118.037 E0.01391
G1 X143.210 Y118.371 F10800.000
G1 F1200
G1 X143.210 Y121.510 E0.09843
G1 X134.290 Y121.510 E0.27968
G1 X134.290 Y118.373 E0.09836
G1 X134.582 Y118.326 E0.00928
G1 X134.660 Y118.289 E0.00269
G1 X134.723 Y118.232 E0.00269
G1 X134.761 Y118.171 E0.00222
G1 X134.790 Y118.049 E0.00393
G1 X134.794 Y117.464 E0.01837
G1 X134.831 Y117.309 E0.00497
G1 X134.908 Y117.155 E0.00542
G1 X135.022 Y117.023 E0.00546
G1 X135.165 Y116.923 E0.00546
G1 X135.327 Y116.860 E0.00546
G1 X135.487 Y116.840 E0.00505
G1 X142.013 Y116.840 E0.20461
G1 X142.174 Y116.860 E0.00510
G1 X142.357 Y116.933 E0.00617
G1 X142.563 Y117.111 E0.00853
G1 X142.685 Y117.353 E0.00849
G1 X142.710 Y117.522 E0.00537
G1 X142.712 Y118.068 E0.01711
G1 X142.750 Y118.191 E0.00405
G1 X142.852 Y118.297 E0.00461
G1 X142.924 Y118.328 E0.00248
G1 X143.151 Y118.362 E0.00717
G1 X143.609 Y118.398 F10800.000
G1 F8640
G1 X143.210 Y121.510 E-0.72701
G1 X143.067 Y121.510 E-0.03299
G1 E-0.04000 F2100.00000
G1 Z0.800 F10800.000
G1 X141.014 Y113.059
G1 Z0.200
G1 E0.80000 F2100.00000
G1 F1200
G1 X140.503 Y113.256 E0.01719
G1 X139.974 Y113.402 E0.01719
G1 X139.434 Y113.496 E0.01719
G1 X138.887 Y113.536 E0.01719
G1 X138.339 Y113.523 E0.01719
G1 X137.795 Y113.456 E0.01719
G1 X137.260 Y113.336 E0.01719
G1 X136.739 Y113.164 E0.01719
G1 X136.238 Y112.941 E0.01719
G1 X135.761 Y112.671 E0.01719
G1 X135.312 Y112.355 E0.01719
G1 X134.897 Y111.997 E0.01719
G1 X134.519 Y111.600 E0.01719
G1 X134.182 Y111.168 E0.01719
G1 X133.888 Y110.704 E0.01719
G1 X133.642 Y110.215 E0.01719
G1 X133.444 Y109.703 E0.01719
G1 X133.298 Y109.175 E0.01719
G1 X133.204 Y108.634 E0.01719
G1 X133.164 Y108.087 E0.01719
G1 X133.177 Y107.539 E0.01719
G1 X133.244 Y106.995 E0.01719
G1 X133.365 Y106.460 E0.01719
G1 X133.537 Y105.939 E0.01719
G1 X133.759 Y105.438 E0.01719
G1 X134.029 Y104.961 E0.01719
G1 X134.345 Y104.512 E0.01719
G1 X134.703 Y104.097 E0.01719
G1 X135.100 Y103.719 E0.01719
G1 X135.533 Y103.382 E0.01719
G1 X135.996 Y103.088 E0.01719
G1 X136.486 Y102.842 E0.01719
G1 X136.997 Y102.644 E0.01719
G1 X137.526 Y102.498 E0.01719
G1 X138.066 Y102.404 E0.01720
G1 X138.616 Y102.364 E0.01730
G1 X139.161 Y102.378 E0.01709
G1 X139.705 Y102.445 E0.01719
G1 X140.240 Y102.565 E0.01719
G1 X140.761 Y102.737 E0.01719
G1 X141.262 Y102.959 E0.01719
G1 X141.739 Y103.229 E0.01719
G1 X142.188 Y103.545 E0.01719
G1 X142.603 Y103.903 E0.01719
G1 X142.981 Y104.300 E0.01719
G1 X143.318 Y104.733 E0.01719
G1 X143.612 Y105.196 E0.01719
G1 X143.858 Y105.686 E0.01719
G1 X144.056 Y106.197 E0.01719
G1 X144.202 Y106.726 E0.01719
G1 X144.296 Y107.266 E0.01719
G1 X144.336 Y107.813 E0.01719
G1 X144.323 Y108.361 E0.01719
G1 X144.256 Y108.906 E0.01719
G1 X144.135 Y109.441 E0.01719
G1 X143.963 Y109.961 E0.01719
G1 X143.741 Y110.463 E0.01719
G1 X143.471 Y110.940 E0.01719
G1 X143.155 Y111.388 E0.01719
G1 X142.797 Y111.803 E0.01719
G1 X142.400 Y112.181 E0.01719
G1 X141.967 Y112.519 E0.01719
G1 X141.504 Y112.812 E0.01719
G1 X141.068 Y113.032 E0.01531
G1 X140.898 Y112.695 F10800.000
G1 F1200
G1 X140.384 Y112.898 E0.01733
G1 X139.892 Y113.034 E0.01603
G1 X139.388 Y113.121 E0.01603
G1 X138.878 Y113.159 E0.01603
G1 X138.367 Y113.146 E0.01603
G1 X137.859 Y113.084 E0.01603
G1 X137.360 Y112.972 E0.01603
G1 X136.875 Y112.811 E0.01603
G1 X136.407 Y112.604 E0.01603
G1 X135.963 Y112.352 E0.01603
G1 X135.544 Y112.058 E0.01603
G1 X135.157 Y111.724 E0.01603
G1 X134.805 Y111.353 E0.01603
G1 X134.490 Y110.950 E0.01603
G1 X134.217 Y110.518 E0.01603
G1 X133.987 Y110.062 E0.01603
G1 X133.803 Y109.585 E0.01603
G1 X133.666 Y109.092 E0.01603
G1 X133.579 Y108.588 E0.01603
G1 X133.541 Y108.078 E0.01603
G1 X133.554 Y107.567 E0.01603
G1 X133.616 Y107.059 E0.01603
G1 X133.728 Y106.561 E0.01603
G1 X133.889 Y106.075 E0.01603
G1 X134.096 Y105.608 E0.01603
G1 X134.348 Y105.163 E0.01603
G1 X134.643 Y104.745 E0.01603
G1 X134.976 Y104.358 E0.01603
G1 X135.347 Y104.005 E0.01603
G1 X135.750 Y103.690 E0.01603
G1 X136.182 Y103.417 E0.01603
G1 X136.639 Y103.187 E0.01603
G1 X137.116 Y103.003 E0.01603
G1 X137.608 Y102.867 E0.01603
G1 X138.112 Y102.779 E0.01603
G1 X138.626 Y102.742 E0.01614
G1 X139.133 Y102.754 E0.01593
G1 X139.641 Y102.817 E0.01603
G1 X140.140 Y102.929 E0.01603
G1 X140.625 Y103.089 E0.01603
G1 X141.093 Y103.296 E0.01603
G1 X141.537 Y103.548 E0.01603
G1 X141.956 Y103.843 E0.01603
G1 X142.343 Y104.177 E0.01603
G1 X142.695 Y104.547 E0.01603
G1 X143.010 Y104.950 E0.01603
G1 X143.283 Y105.382 E0.01603
G1 X143.513 Y105.839 E0.01603
G1 X143.697 Y106.316 E0.01603
G1 X143.834 Y106.809 E0.01603
G1 X143.921 Y107.312 E0.01603
G1 X143.959 Y107.822 E0.01603
G1 X143.946 Y108.334 E0.01603
G1 X143.884 Y108.841 E0.01603
G1 X143.772 Y109.340 E0.01603
G1 X143.611 Y109.825 E0.01603
G1 X143.404 Y110.293 E0.01603
G1 X143.152 Y110.738 E0.01603
G1 X142.857 Y111.156 E0.01603
G1 X142.524 Y111.543 E0.01603
G1 X142.153 Y111.895 E0.01603
G1 X141.750 Y112.210 E0.01603
G1 X141.318 Y112.484 E0.01603
G1 X140.952 Y112.668 E0.01285
G1 X140.858 Y113.093 F10800.000
G1 F8640
G1 X140.384 Y112.898 E-0.14140
G1 X139.892 Y113.034 E-0.11806
G1 X139.388 Y113.121 E-0.11806
G1 X138.878 Y113.159 E-0.11806
G1 X138.367 Y113.146 E-0.11806
G1 X137.859 Y113.084 E-0.11806
G1 X137.740 Y113.057 E-0.02829
G1 E-0.04000 F2100.00000
G1 Z0.800 F10800.000
G1 X145.685 Y118.981
G1 Z0.200
G1 E0.80000 F2100.00000
G1 F1200
G1 X145.500 Y119.411 E0.01467
G1 X145.420 Y119.822 E0.01314
G1 X145.411 Y120.382 E0.01755
G1 X145.375 Y120.670 E0.00909
G1 X145.283 Y120.988 E0.01039
G1 X145.139 Y121.283 E0.01028
G1 X144.949 Y121.545 E0.01017
G1 X144.675 Y121.806 E0.01186
G1 X144.357 Y122.008 E0.01182
G1 X144.051 Y122.130 E0.01031
G1 X143.780 Y122.191 E0.00870
G1 X143.478 Y122.213 E0.00950
G1 X133.964 Y122.212 E0.29832
G1 X133.719 Y122.191 E0.00769
G1 X133.494 Y122.144 E0.00724
G1 X133.223 Y122.047 E0.00901
G1 X133.020 Y121.942 E0.00716
G1 X132.787 Y121.778 E0.00893
G1 X132.584 Y121.584 E0.00882
G1 X132.411 Y121.362 E0.00882
G1 X132.272 Y121.117 E0.00882
G1 X132.170 Y120.853 E0.00890
G1 X132.116 Y120.627 E0.00727
G1 X132.090 Y120.387 E0.00758
G1 X132.083 Y119.867 E0.01629
G1 X132.024 Y119.499 E0.01170
G1 X131.862 Y119.069 E0.01440
G1 X131.629 Y118.709 E0.01346
G1 X131.328 Y118.404 E0.01341
G1 X130.939 Y118.151 E0.01456
G1 X130.547 Y118.002 E0.01315
G1 X130.054 Y117.909 E0.01570
G1 X129.805 Y117.831 E0.00819
G1 X129.530 Y117.697 E0.00959
G1 X129.284 Y117.525 E0.00941
G1 X129.068 Y117.315 E0.00946
G1 X128.863 Y117.036 E0.01085
G1 X128.713 Y116.725 E0.01083
G1 X128.621 Y116.394 E0.01075
G1 X128.587 Y116.024 E0.01167
G1 X128.588 Y100.914 E0.47375
G1 X128.609 Y100.673 E0.00758
G1 X128.671 Y100.394 E0.00895
G1 X128.752 Y100.175 E0.00733
G1 X128.860 Y99.967 E0.00734
G1 X128.993 Y99.774 E0.00735
G1 X129.148 Y99.598 E0.00735
G1 X129.326 Y99.441 E0.00746
G1 X129.683 Y99.222 E0.01310
G1 X129.900 Y99.135 E0.00735
G1 X130.127 Y99.075 E0.00735
G1 X130.356 Y99.044 E0.00724
G1 X147.026 Y99.038 E0.52268
G1 X147.373 Y99.076 E0.01094
G1 X147.684 Y99.166 E0.01016
G1 X148.025 Y99.338 E0.01197
G1 X148.283 Y99.534 E0.01017
G1 X148.504 Y99.772 E0.01017
G1 X148.708 Y100.095 E0.01197
G1 X148.827 Y100.392 E0.01005
G1 X148.901 Y100.763 E0.01186
G1 X148.912 Y116.080 E0.48026
G1 X148.888 Y116.351 E0.00853
G1 X148.829 Y116.607 E0.00822
G1 X148.757 Y116.803 E0.00656
G1 X148.637 Y117.037 E0.00822
G1 X148.489 Y117.249 E0.00814
G1 X148.183 Y117.552 E0.01348
G1 X148.007 Y117.676 E0.00677
G1 X147.617 Y117.860 E0.01351
G1 X147.405 Y117.919 E0.00692
G1 X147.002 Y117.990 E0.01280
G1 X146.684 Y118.095 E0.01050
G1 X146.286 Y118.317 E0.01430
G1 X145.962 Y118.603 E0.01357
G1 X145.720 Y118.933 E0.01279
G1 X146.025 Y119.155 F10800.000
G1 F1200
G1 X145.862 Y119.522 E0.01258
G1 X145.796 Y119.862 E0.01083
G1 X145.787 Y120.408 E0.01714
G1 X145.746 Y120.746 E0.01066
G1 X145.636 Y121.124 E0.01236
G1 X145.464 Y121.477 E0.01232
G1 X145.234 Y121.794 E0.01228
G1 X144.908 Y122.105 E0.01411
G1 X144.529 Y122.345 E0.01408
G1 X144.163 Y122.491 E0.01235
G1 X143.836 Y122.565 E0.01052
G1 X143.492 Y122.590 E0.01080
G1 X133.948 Y122.589 E0.29926
G1 X133.664 Y122.565 E0.00893
G1 X133.391 Y122.507 E0.00876
G1 X133.072 Y122.393 E0.01061
G1 X132.824 Y122.265 E0.00876
G1 X132.548 Y122.070 E0.01060
G1 X132.304 Y121.838 E0.01056
G1 X132.096 Y121.572 E0.01056
G1 X131.930 Y121.279 E0.01056
G1 X131.809 Y120.965 E0.01057
G1 X131.744 Y120.692 E0.00880
G1 X131.713 Y120.410 E0.00889
G1 X131.706 Y119.899 E0.01601
G1 X131.658 Y119.596 E0.00964
G1 X131.524 Y119.240 E0.01193
G1 X131.333 Y118.946 E0.01098
G1 X131.088 Y118.698 E0.01093
G1 X130.767 Y118.489 E0.01202
G1 X130.444 Y118.367 E0.01083
G1 X129.962 Y118.276 E0.01537
G1 X129.665 Y118.182 E0.00977
G1 X129.338 Y118.023 E0.01140
G1 X129.044 Y117.817 E0.01128
G1 X128.782 Y117.564 E0.01140
G1 X128.539 Y117.231 E0.01293
G1 X128.358 Y116.859 E0.01297
G1 X128.248 Y116.462 E0.01289
G1 X128.210 Y116.041 E0.01328
G1 X128.211 Y100.898 E0.47479
G1 X128.235 Y100.616 E0.00889
G1 X128.309 Y100.287 E0.01055
G1 X128.407 Y100.022 E0.00886
G1 X128.536 Y99.773 E0.00880
G1 X128.695 Y99.542 E0.00880
G1 X128.881 Y99.331 E0.00880
G1 X129.092 Y99.144 E0.00884
G1 X129.274 Y99.016 E0.00696
G1 X129.521 Y98.880 E0.00884
G1 X129.782 Y98.776 E0.00880
G1 X130.053 Y98.705 E0.00880
G1 X130.330 Y98.667 E0.00876
G1 X147.047 Y98.661 E0.52413
G1 X147.447 Y98.705 E0.01261
G1 X147.823 Y98.814 E0.01227
G1 X148.226 Y99.017 E0.01415
G1 X148.537 Y99.254 E0.01228
G1 X148.804 Y99.541 E0.01228
G1 X149.045 Y99.922 E0.01415
G1 X149.190 Y100.284 E0.01224
G1 X149.278 Y100.726 E0.01411
G1 X149.289 Y116.097 E0.48196
G1 X149.261 Y116.411 E0.00987
G1 X149.191 Y116.714 E0.00976
G1 X149.103 Y116.955 E0.00803
G1 X148.961 Y117.231 E0.00976
G1 X148.785 Y117.484 E0.00967
G1 X148.611 Y117.678 E0.00815
G1 X148.417 Y117.849 E0.00810
G1 X148.205 Y117.997 E0.00810
G1 X147.978 Y118.120 E0.00810
G1 X147.739 Y118.217 E0.00810
G1 X147.488 Y118.287 E0.00816
G1 X147.095 Y118.357 E0.01254
G1 X146.836 Y118.442 E0.00853
G1 X146.505 Y118.627 E0.01189
G1 X146.242 Y118.859 E0.01102
G1 X146.060 Y119.107 E0.00964
G1 X145.625 Y119.156 F10800.000
G1 F8640
G1 X145.862 Y119.522 E-0.10624
G1 X145.796 Y119.862 E-0.07976
G1 X145.787 Y120.408 E-0.12625
G1 X145.746 Y120.746 E-0.07849
G1 X145.636 Y121.124 E-0.09100
G1 X145.464 Y121.477 E-0.09070
G1 X145.234 Y121.794 E-0.09040
G1 X144.929 Y122.085 E-0.09716
G1 E-0.04000 F2100.00000
G1 Z0.800 F10800.000
G1 X145.304 Y119.981
G1 Z0.200
G1 E0.80000 F2100.00000
G1 F1200
G1 X143.870 Y118.547 E0.06386
G1 X143.870 Y119.082 E0.01686
G1 X145.128 Y120.341 E0.05603
G1 X145.128 Y120.362 E0.00067
G1 X145.097 Y120.612 E0.00794
G1 X145.045 Y120.793 E0.00591
G1 X143.870 Y119.618 E0.05231
G1 X143.870 Y120.153 E0.01686
G1 X144.878 Y121.161 E0.04487
G1 X144.735 Y121.359 E0.00767
G1 X144.635 Y121.454 E0.00435
G1 X143.870 Y120.689 E0.03406
G1 X143.870 Y121.224 E0.01686
G1 X144.333 Y121.688 E0.02064
G1 X144.227 Y121.755 E0.00396
G1 X143.969 Y121.858 E0.00877
G1 X143.700 Y121.590 E0.01196
G1 F8640
G1 X143.969 Y121.858 E-0.08769
G1 X144.227 Y121.755 E-0.06431
G1 X144.333 Y121.688 E-0.02902
G1 X143.870 Y121.224 E-0.15137
G1 X143.870 Y120.689 E-0.12364
G1 X144.635 Y121.454 E-0.24984
G1 X144.735 Y121.359 E-0.03192
G1 X144.791 Y121.281 E-0.02222
G1 E-0.04000 F2100.00000
G1 Z0.800 F10800.000
G1 X143.175 Y117.316
G1 Z0.200
G1 E0.80000 F2100.00000
G1 F1200
G1 X145.221 Y119.363 E0.09111
G1 X145.376 Y118.983 E0.01293
G1 X140.065 Y113.671 E0.23650
G1 X140.484 Y113.555 E0.01370
G1 X145.578 Y118.649 E0.22680
G1 X145.752 Y118.412 E0.00925
